public/images/frog/frog-evaluating.svg

<svg xmlns="http://www.w3.org/2000/svg" width="278" height="362" fill="none"><ellipse cx="139.5" cy="347.5" fill="#000" fill-opacity=".3" rx="70.5" ry="14.5"/><mask id="a" width="278" height="347" x="0" y="0" maskUnits="userSpaceOnUse" style="mask-type:alpha"><path fill="#D9D9D9" d="M0 0h278v347H0z"/></mask><g mask="url(#a)"><path fill="#00CE4C" d="M129.506 342.005c-3.602.47-7.116 1.207-10.599 2.078-2.655.667-5.278 1.46-7.978 1.946-2.441.439-4.889.751-7.372.76-2.438.008-4.878.174-7.31-.09-.922-.102-1.83-.262-2.703-.588-.558-.208-1.076-.481-1.507-.9-.815-.79-.9-1.788-.237-2.708.4-.554.944-.942 1.522-1.282.521-.31 1.065-.582 1.592-.866.017-.149-.096-.166-.18-.2-5.048-2.005-7.885-5.835-8.937-11.02-1.552-7.663 2.162-15.382 9.089-19.099.32-.172.498-.374.55-.754.687-5.179 2.358-10.027 4.973-14.549.316-.545.2-.734-.31-1.001-4.562-2.401-8.987-5.028-13.028-8.245-6.662-5.3-11.703-11.796-14.578-19.858-1.39-3.892-1.933-7.921-1.685-12.038.256-4.241 1.6-8.146 3.844-11.757 1.316-2.115 2.666-4.201 4.204-6.164.575-.734.57-.748.017-1.53-1.031-1.456-2.063-2.913-3.11-4.361-.52-.717-.95-1.485-1.413-2.236-.845-1.369-.927-2.843-.69-4.369.603-3.912 2.223-7.452 4.075-10.894 1.014-1.887 2.807-2.908 4.661-3.81.265-.13.535-.239.843-.374.318.194.25.472.174.736-.668 2.329-.808 4.713-.676 7.106.166 2.998.904 5.877 2.13 8.625a24.573 24.573 0 0 0 4.901 7.215 24.782 24.782 0 0 0 5.45 4.182c2.852 1.625 5.91 2.668 9.162 3.059 3.345.399 6.662.214 9.922-.728 5.377-1.55 9.739-4.561 13.124-8.993.378-.495.814-.765 1.451-.714.761.059 1.533-.096 2.328.121.279.23.344.512.392.807a19.783 19.783 0 0 0 2.584 7.021c.476.791.989 1.553 1.736 2.132 1.223.95 2.451.902 3.613-.16.915-.841 1.516-1.893 1.992-3.023.843-2.002 1.31-4.103 1.623-6.24.025-.175.042-.349.147-.551.225-.259.493-.321.775-.329.648-.02 1.296-.017 1.944 0 .395.011.713.18.984.466.4.431.772.889 1.172 1.319 4.007 4.314 8.928 6.937 14.761 7.747 6.794.945 12.977-.672 18.503-4.729.79-.58 1.536-1.221 2.224-1.924.225-.23.459-.514.896-.326 6.383 7.874 9.435 16.591 7.15 26.767-.15.332-.401.265-.629.242-1.446-.14-2.883-.36-4.323-.543-2.003-.255-4.01-.511-6.014-.773-2.277-.295-4.556-.568-6.831-.869-2.062-.275-4.128-.509-6.191-.779-2.607-.343-5.222-.613-7.823-1.001-2.717-.405-5.442-.759-8.164-1.113-.651-.085-.741-.017-.876.641-.451 2.165-.953 4.322-1.423 6.484-.919 4.229-1.838 8.459-2.737 12.691-.868 4.08-1.724 8.16-2.59 12.24-.994 4.694-1.964 9.392-2.959 14.086-.047.23-.121.455-.338.66-.684.203-1.324-.014-1.964-.002-1.984.033-4.004-.003-5.715 1.212-1.443 1.026-2.525 2.393-3.399 3.931-1.521 2.677-2.305 5.601-2.978 8.571-.941 4.139-1.243 8.334-1.026 12.552.251 4.879 1.147 9.64 3.224 14.119.273.611.699 1.198.561 1.974Z"/><path fill="#FFF500" d="M140.646 299.64c.533-1.766.82-3.543 1.195-5.301 1.722-8.098 3.418-16.202 5.146-24.301 1.18-5.531 2.395-11.054 3.596-16.579.211-.973.217-.993 1.186-.861 3.303.453 6.603.942 9.908 1.378 2.959.391 5.924.726 8.886 1.097 2.981.371 5.96.753 8.939 1.133 2.902.368 5.802.74 8.705 1.108 1.13.143 2.257.287 3.429.425.643.258 1.037.073 1.502-.417 5.62-5.927 11.447-11.65 17.258-17.386 1.339-1.322 2.644-2.683 4.061-3.928.296-.259.561-.321.896-.119.355.211.217.501.135.779-2.372 8.076-4.317 16.271-6.549 24.386-.679 2.474-1.319 4.957-1.987 7.483-.112.286-.341.289-.552.326-1.981.334-3.328 1.462-4.179 3.253-.772 1.626-1.122 3.38-1.612 5.087-1.618 5.627-3.244 11.254-4.76 16.909-.313 1.172-.603 2.348-.727 3.562-.169 1.634.386 3.605 2.184 4.435.178.081.355.174.457.41a956.223 956.223 0 0 1-2.449 8.858c-.471 1.676-.908 3.361-1.505 4.997a1.55 1.55 0 0 1-.581.773 338.913 338.913 0 0 0-3.621 2.689c-.172.489-.586.675-.933.922-1.183.841-2.465 1.566-3.539 2.528-.967.863-2.023 1.156-3.249 1.249-2.348.18-4.667.601-7 .899-2.528.324-5.056.664-7.581.999-2.488.329-4.974.666-7.465.989-2.294.299-4.588.611-6.885.886-.837.101-1.671.222-2.561.301-3.12.413-6.194.787-9.272 1.125-1.831.2-3.658.439-5.503.458a5.268 5.268 0 0 1-.471-.008c-.634-.048-.902-.338-.772-.968.358-1.743.727-3.484 1.085-5.227a4445.71 4445.71 0 0 1 2.485-12.066c.804-3.87 1.607-7.736 2.415-11.602.051-.223.048-.476.285-.681Z"/><path fill="#FF8BCA" d="M131.301 228.885c-1.023-.169-2.003-.059-2.984-.062-.327 0-.44.304-.598.515-3.122 4.153-7.132 7.108-12.058 8.787-15.384 5.239-31.571-5.233-33.082-21.394-.261-2.795-.118-5.565.71-8.273a.866.866 0 0 0 .02-.331c.38-.678.544-1.415.798-2.109 2.314-6.341 6.71-10.866 12.45-14.218 2.686-1.569 5.673-2.038 8.708-2.275 6.065-.475 11.56 1.108 16.511 4.615.209.146.409.309.707.385.536.169.854.565 1.215.886 2.598 2.328 4.743 5.008 6.279 8.152a24.37 24.37 0 0 1 1.381 3.433c.14.456.369.67.882.653 2.804-.096 5.61-.166 8.412-.29 1.496-.065 1.18.231 1.75-1.313 1.271-3.462 3.204-6.53 5.613-9.313a36.343 36.343 0 0 1 1.778-1.879c.169-.169.344-.323.615-.416.273-.087.465-.222.639-.385 8.401-7.747 20.336-6.502 27.324-2.478 10.281 5.92 15.424 18.596 11.884 29.746-1.054 3.32-2.818 6.245-5.146 8.838-.194.216-.436.402-.51.75-.293-.005-.434.208-.6.366-10.799 10.323-27.589 9.336-37.077-2.191-.293-.357-.598-.517-1.054-.486-.781.053-1.57-.034-2.393.121-.301.245-.617.242-.933.242-1.53.003-3.06.033-4.587-.009-1.922-.05-3.839.158-5.758.124-.293 0-.597.042-.896-.191Z"/><path fill="#00CF4B" d="M150.308 328.488c1.164-.315 2.322-.371 3.467-.526 3.207-.435 6.416-.84 9.623-1.259 3.092-.405 6.183-.813 9.275-1.224 2.722-.362 5.438-.739 8.161-1.099a23.83 23.83 0 0 1 2.048-.191c.598-.028 1.06-.237 1.514-.641 1.186-1.061 2.581-1.848 3.863-2.784.412-.301.84-.577 1.294-.875 2.663 7.221.087 17.446-8.452 20.41.116.213.347.241.53.334.829.416 1.64.855 2.297 1.521 1.082 1.1.981 2.408-.254 3.33-.842.63-1.831.883-2.843 1.068-.851.155-1.713.22-2.579.268-5.033.284-9.914-.448-14.716-1.983a57.485 57.485 0 0 0-9.987-2.255 78.536 78.536 0 0 0-7.073-.636c-.212-.222-.121-.419-.017-.613 1.981-3.74 3.001-7.761 3.542-11.925.037-.312.057-.633.307-.92Z"/><path fill="#DBFF9E" d="M150.298 328.446c-.42 4.395-1.46 8.619-3.396 12.604-.138.284-.443.458-.476.84-1.669-.056-3.326-.222-4.988-.306-3.855-.197-7.682.124-11.509.478-.116.011-.234.003-.403-.006-.195-.413-.299-.838-.488-1.223-1.989-4.097-2.993-8.453-3.41-12.958-.614-6.611.13-13.078 2.193-19.385.766-2.346 1.879-4.519 3.536-6.395 1.46-1.653 3.281-2.486 5.465-2.618 1.259-.076 2.513-.11 3.813.13-.026 1.141-.341 2.235-.57 3.346-1.719 8.351-3.446 16.697-5.174 25.046-.098.478-.205.959-.321 1.434-.093.386.039.526.442.537 1.539.04 3.064-.129 4.585-.303 3.416-.391 6.826-.816 10.239-1.224.135-.022.273-.011.462.003Z"/><path fill="#00CE4C" d="M197.821 302.573c-2.271-.782-3.162-2.697-2.914-5.008.271-2.523 1.102-4.904 1.77-7.325 1.561-5.661 3.137-11.319 4.808-16.948.682-2.298 2.023-4.12 4.607-4.609.251-.048.508-.054.809-.087 2.742.171 4.424 1.757 5.521 4.043 1.118 2.331 1.054 4.789.445 7.233a151.803 151.803 0 0 1-4.472 14.805c-.322.888-.958 1.561-1.547 2.264-1.364 1.625-2.773 3.205-4.512 4.454-1.339.959-2.787 1.524-4.515 1.178ZM150.401 194.401c.014.256-.183.374-.335.523-3.539 3.408-6.208 7.376-7.741 12.061-.116.357-.257.554-.679.568-3.205.093-6.406.202-9.607.329-.474.019-.682-.115-.829-.582-1.555-4.896-4.334-8.976-8.293-12.261-.15-.123-.336-.213-.384-.466 3.072-1.328 6.161-1.637 9.176.07 1.837 1.04 3.055 2.663 3.785 4.643.38 1.032.606 2.103.848 3.169.037.166.017.399.256.396.232-.003.229-.239.26-.402.262-1.389.586-2.761 1.209-4.041 1.834-3.768 5.582-5.478 9.519-4.769.947.172 1.871.405 2.815.762ZM131.259 228.89a170.13 170.13 0 0 1 5.76-.157c2.099-.023 4.199-.017 6.354-.006-.281 2.649-.822 5.228-2.009 7.629-.358.723-.78 1.406-1.338 1.997-1.618 1.712-3.506 1.661-4.986-.186-1.552-1.937-2.558-4.156-3.207-6.538-.242-.886-.386-1.797-.574-2.739Z"/><path fill="#0E0E0E" d="M152.732 226.331c-2.792-3.045-4.489-6.557-4.878-10.64-.614-6.431 1.64-11.749 6.369-16.09 2.156-1.98 4.551-3.521 7.42-4.266 5.236-1.358 10.193-.689 14.784 2.151 4.931 3.051 7.842 7.508 8.631 13.244.905 6.569-1.163 12.165-5.996 16.67-2.985 2.781-6.6 4.333-10.689 4.744-4.963.5-9.413-.807-13.395-3.766-.803-.598-1.521-1.296-2.246-2.047ZM100.034 231.579c-4.292-1.89-7.499-4.879-9.488-9.061-2.438-5.12-2.463-10.325-.195-15.527 1.3-2.978 3.402-5.298 5.853-7.407 2.601-2.241 5.583-3.484 8.914-3.926 4.421-.585 8.575.295 12.354 2.68 4.884 3.082 7.789 7.505 8.576 13.219.901 6.569-1.167 12.165-6 16.667-2.984 2.781-6.603 4.316-10.689 4.746-3.224.341-6.304-.151-9.325-1.391Z"/><path fill="#88A1FF" fill-rule="evenodd" d="M52.652 83.537c11.24 0 20.661 7.777 23.174 18.241.19-.005.382-.007.574-.007 13.161 0 23.831 10.665 23.831 23.82 0 8.608-4.568 16.15-11.414 20.335a23.746 23.746 0 0 1 1.739 8.949c0 13.156-10.67 23.82-23.831 23.82a23.731 23.731 0 0 1-14.073-4.595 23.732 23.732 0 0 1-14.074 4.595c-13.161 0-23.83-10.664-23.83-23.82 0-3.165.617-6.186 1.738-8.949-6.846-4.185-11.414-11.727-11.414-20.335 0-13.155 10.67-23.82 23.832-23.82.192 0 .383.002.574.007 2.512-10.464 11.935-18.241 23.174-18.241Z" clip-rule="evenodd"/><path fill="#A0FF56" d="m139 6 15.597 20.477 25.735-.572-6.285 24.962L190.54 70.63l-23.434 10.65-5.169 25.217L139 94.815l-22.938 11.682-5.168-25.217-23.435-10.65 16.493-19.763-6.284-24.962 25.734.572L139 6Z"/><path fill="#FB7A35" fill-rule="evenodd" d="M237.691 83.537h-24.686v17.723l-12.429-12.428-17.456 17.455 12.485 12.486h-17.837v24.686h18.048L183.1 156.176l17.456 17.455 12.449-12.449v17.513h24.686v-17.837l12.716 12.717 17.456-17.456-12.659-12.66h17.723v-24.686h-17.513l12.429-12.429-17.456-17.456-12.696 12.696V83.537Z" clip-rule="evenodd"/></g></svg>

<svg width="278" height="362" viewBox="0 0 278 362" fill="none" xmlns="http://www.w3.org/2000/svg">
<ellipse cx="139.5" cy="347.5" rx="70.5" ry="14.5" fill="black" fill-opacity="0.3"/>
<mask id="mask0_2886_2563" style="mask-type:alpha" maskUnits="userSpaceOnUse" x="0" y="0" width="278" height="347">
<rect width="278" height="347" fill="#D9D9D9"/>
</mask>
<g mask="url(#mask0_2886_2563)">
<path d="M129.506 342.005C125.904 342.475 122.39 343.212 118.907 344.083C116.252 344.75 113.629 345.543 110.929 346.029C108.488 346.468 106.04 346.78 103.557 346.789C101.119 346.797 98.6788 346.963 96.2468 346.699C95.3253 346.597 94.4178 346.437 93.5442 346.111C92.9863 345.903 92.4677 345.63 92.0366 345.211C91.2222 344.421 91.1376 343.423 91.7999 342.503C92.2 341.949 92.7439 341.561 93.3216 341.221C93.843 340.911 94.3868 340.639 94.9138 340.355C94.9307 340.206 94.818 340.189 94.7335 340.155C89.6863 338.15 86.8485 334.32 85.7974 329.135C84.2446 321.472 87.9588 313.753 94.8856 310.036C95.2069 309.864 95.3844 309.662 95.4352 309.282C96.1228 304.103 97.7939 299.255 100.409 294.733C100.725 294.188 100.609 293.999 100.099 293.732C95.5366 291.331 91.1123 288.704 87.0711 285.487C80.4092 280.187 75.3677 273.691 72.4932 265.629C71.1039 261.737 70.5601 257.708 70.808 253.591C71.0645 249.35 72.4087 245.445 74.6519 241.834C75.9679 239.719 77.3178 237.633 78.8565 235.67C79.4313 234.936 79.4257 234.922 78.8734 234.14C77.8419 232.684 76.8105 231.227 75.7622 229.779C75.2437 229.062 74.8125 228.294 74.3504 227.543C73.5049 226.174 73.4232 224.7 73.6599 223.174C74.263 219.262 75.8834 215.722 77.7349 212.28C78.7494 210.393 80.5417 209.372 82.396 208.47C82.6609 208.34 82.9314 208.231 83.2386 208.096C83.557 208.29 83.4894 208.568 83.4133 208.832C82.7454 211.161 82.6045 213.545 82.7369 215.938C82.9032 218.936 83.6415 221.815 84.8674 224.563C86.0707 227.259 87.708 229.672 89.768 231.778C91.38 233.423 93.2061 234.812 95.2182 235.96C98.0701 237.585 101.128 238.628 104.38 239.019C107.725 239.418 111.042 239.233 114.302 238.291C119.679 236.741 124.041 233.73 127.426 229.298C127.804 228.803 128.24 228.533 128.877 228.584C129.638 228.643 130.41 228.488 131.205 228.705C131.484 228.935 131.549 229.217 131.597 229.512C132.017 232.014 132.868 234.36 134.181 236.533C134.657 237.324 135.17 238.086 135.917 238.665C137.14 239.615 138.368 239.567 139.53 238.505C140.445 237.664 141.046 236.612 141.522 235.482C142.365 233.48 142.832 231.379 143.145 229.242C143.17 229.067 143.187 228.893 143.292 228.691C143.517 228.432 143.785 228.37 144.067 228.362C144.715 228.342 145.363 228.345 146.011 228.362C146.406 228.373 146.724 228.542 146.995 228.828C147.395 229.259 147.767 229.717 148.167 230.147C152.174 234.461 157.095 237.084 162.928 237.894C169.722 238.839 175.905 237.222 181.431 233.165C182.221 232.585 182.967 231.944 183.655 231.241C183.88 231.011 184.114 230.727 184.551 230.915C190.934 238.789 193.986 247.506 191.701 257.682C191.551 258.014 191.3 257.947 191.072 257.924C189.626 257.784 188.189 257.564 186.749 257.381C184.746 257.126 182.739 256.87 180.735 256.608C178.458 256.313 176.179 256.04 173.904 255.739C171.842 255.464 169.776 255.23 167.713 254.96C165.106 254.617 162.491 254.347 159.89 253.959C157.173 253.554 154.448 253.2 151.726 252.846C151.075 252.761 150.985 252.829 150.85 253.487C150.399 255.652 149.897 257.809 149.427 259.971C148.508 264.2 147.589 268.43 146.69 272.662C145.822 276.742 144.966 280.822 144.1 284.902C143.106 289.596 142.136 294.294 141.141 298.988C141.094 299.218 141.02 299.443 140.803 299.648C140.119 299.851 139.479 299.634 138.839 299.646C136.855 299.679 134.835 299.643 133.124 300.858C131.681 301.884 130.599 303.251 129.725 304.789C128.204 307.466 127.42 310.39 126.747 313.36C125.806 317.499 125.504 321.694 125.721 325.912C125.972 330.791 126.868 335.552 128.945 340.031C129.218 340.642 129.644 341.229 129.506 342.005Z" fill="#00CE4C"/>
<path d="M140.646 299.64C141.179 297.874 141.466 296.097 141.841 294.339C143.563 286.241 145.259 278.137 146.987 270.038C148.167 264.507 149.382 258.984 150.583 253.459C150.794 252.486 150.8 252.466 151.769 252.598C155.072 253.051 158.372 253.54 161.677 253.976C164.636 254.367 167.601 254.702 170.563 255.073C173.544 255.444 176.523 255.826 179.502 256.206C182.404 256.574 185.304 256.946 188.207 257.314C189.337 257.457 190.464 257.601 191.636 257.739C192.279 257.997 192.673 257.812 193.138 257.322C198.758 251.395 204.585 245.672 210.396 239.936C211.735 238.614 213.04 237.253 214.457 236.008C214.753 235.749 215.018 235.687 215.353 235.889C215.708 236.1 215.57 236.39 215.488 236.668C213.116 244.744 211.171 252.939 208.939 261.054C208.26 263.528 207.62 266.011 206.952 268.537C206.84 268.823 206.611 268.826 206.4 268.863C204.419 269.197 203.072 270.325 202.221 272.116C201.449 273.742 201.099 275.496 200.609 277.203C198.991 282.83 197.365 288.457 195.849 294.112C195.536 295.284 195.246 296.46 195.122 297.674C194.953 299.308 195.508 301.279 197.306 302.109C197.484 302.19 197.661 302.283 197.763 302.519C196.954 305.503 196.14 308.442 195.314 311.377C194.843 313.053 194.406 314.738 193.809 316.374C193.688 316.709 193.507 316.945 193.228 317.147C192.025 318.025 190.833 318.916 189.607 319.836C189.435 320.325 189.021 320.511 188.674 320.758C187.491 321.599 186.209 322.324 185.135 323.286C184.168 324.149 183.112 324.442 181.886 324.535C179.538 324.715 177.219 325.136 174.886 325.434C172.358 325.758 169.83 326.098 167.305 326.433C164.817 326.762 162.331 327.099 159.84 327.422C157.546 327.721 155.252 328.033 152.955 328.308C152.118 328.409 151.284 328.53 150.394 328.609C147.274 329.022 144.2 329.396 141.122 329.734C139.291 329.934 137.464 330.173 135.619 330.192C135.461 330.195 135.303 330.195 135.148 330.184C134.514 330.136 134.246 329.846 134.376 329.216C134.734 327.473 135.103 325.732 135.461 323.989C136.284 319.965 137.112 315.944 137.946 311.923C138.75 308.053 139.553 304.187 140.361 300.321C140.412 300.098 140.409 299.845 140.646 299.64Z" fill="#FFF500"/>
<path d="M131.301 228.885C130.278 228.716 129.298 228.826 128.317 228.823C127.99 228.823 127.877 229.127 127.719 229.338C124.597 233.491 120.587 236.446 115.661 238.125C100.277 243.364 84.09 232.892 82.5795 216.731C82.3175 213.936 82.4612 211.166 83.2897 208.458C83.3179 208.366 83.3207 208.267 83.3094 208.127C83.6899 207.449 83.8533 206.712 84.1069 206.018C86.4206 199.677 90.8168 195.152 96.5572 191.8C99.2428 190.231 102.23 189.762 105.265 189.525C111.33 189.05 116.825 190.633 121.776 194.14C121.985 194.286 122.185 194.449 122.483 194.525C123.019 194.694 123.337 195.09 123.698 195.411C126.296 197.739 128.441 200.419 129.977 203.563C130.518 204.674 130.991 205.815 131.358 206.996C131.498 207.452 131.727 207.666 132.24 207.649C135.044 207.553 137.85 207.483 140.652 207.359C142.148 207.294 141.832 207.59 142.402 206.046C143.673 202.584 145.606 199.516 148.015 196.733C148.582 196.077 149.185 195.464 149.793 194.854C149.962 194.685 150.137 194.531 150.408 194.438C150.681 194.351 150.873 194.216 151.047 194.053C159.448 186.306 171.383 187.551 178.371 191.575C188.652 197.495 193.795 210.171 190.255 221.321C189.201 224.641 187.437 227.566 185.109 230.159C184.915 230.375 184.673 230.561 184.599 230.909C184.306 230.904 184.165 231.117 183.999 231.275C173.2 241.598 156.41 240.611 146.922 229.084C146.629 228.727 146.324 228.567 145.868 228.598C145.087 228.651 144.298 228.564 143.475 228.719C143.174 228.964 142.858 228.961 142.542 228.961C141.012 228.964 139.482 228.994 137.955 228.952C136.033 228.902 134.116 229.11 132.197 229.076C131.904 229.076 131.6 229.118 131.301 228.885Z" fill="#FF8BCA"/>
<path d="M150.308 328.488C151.472 328.173 152.63 328.117 153.775 327.962C156.982 327.527 160.191 327.122 163.398 326.703C166.49 326.298 169.581 325.89 172.673 325.479C175.395 325.117 178.111 324.74 180.834 324.38C181.513 324.29 182.198 324.22 182.882 324.189C183.48 324.161 183.942 323.952 184.396 323.548C185.582 322.487 186.977 321.7 188.259 320.764C188.671 320.463 189.099 320.187 189.553 319.889C192.216 327.11 189.64 337.335 181.101 340.299C181.217 340.512 181.448 340.54 181.631 340.633C182.46 341.049 183.271 341.488 183.928 342.154C185.01 343.254 184.909 344.562 183.674 345.484C182.832 346.114 181.843 346.367 180.831 346.552C179.98 346.707 179.118 346.772 178.252 346.82C173.219 347.104 168.338 346.372 163.536 344.837C160.282 343.797 156.942 343.029 153.549 342.582C151.221 342.275 148.882 342.045 146.476 341.946C146.264 341.724 146.355 341.527 146.459 341.333C148.44 337.593 149.46 333.572 150.001 329.408C150.038 329.096 150.058 328.775 150.308 328.488Z" fill="#00CF4B"/>
<path d="M150.298 328.446C149.878 332.841 148.838 337.065 146.902 341.05C146.764 341.334 146.459 341.508 146.426 341.89C144.757 341.834 143.1 341.668 141.438 341.584C137.583 341.387 133.756 341.708 129.929 342.062C129.813 342.073 129.695 342.065 129.526 342.056C129.331 341.643 129.227 341.218 129.038 340.833C127.049 336.736 126.045 332.38 125.628 327.875C125.014 321.264 125.758 314.797 127.821 308.49C128.587 306.144 129.7 303.971 131.357 302.095C132.817 300.442 134.638 299.609 136.822 299.477C138.081 299.401 139.335 299.367 140.635 299.607C140.609 300.748 140.294 301.842 140.065 302.953C138.346 311.304 136.619 319.65 134.891 327.999C134.793 328.477 134.686 328.958 134.57 329.433C134.477 329.819 134.609 329.959 135.012 329.97C136.551 330.01 138.076 329.841 139.597 329.667C143.013 329.276 146.423 328.851 149.836 328.443C149.971 328.421 150.109 328.432 150.298 328.446Z" fill="#DBFF9E"/>
<path d="M197.821 302.573C195.55 301.791 194.659 299.876 194.907 297.565C195.178 295.042 196.009 292.661 196.677 290.24C198.238 284.579 199.814 278.921 201.485 273.292C202.167 270.994 203.508 269.172 206.092 268.683C206.343 268.635 206.6 268.629 206.901 268.596C209.643 268.767 211.325 270.353 212.422 272.639C213.54 274.97 213.476 277.428 212.867 279.872C211.621 284.88 210.145 289.818 208.395 294.677C208.073 295.565 207.437 296.238 206.848 296.941C205.484 298.566 204.075 300.146 202.336 301.395C200.997 302.354 199.549 302.919 197.821 302.573Z" fill="#00CE4C"/>
<path d="M150.401 194.401C150.415 194.657 150.218 194.775 150.066 194.924C146.527 198.332 143.858 202.3 142.325 206.985C142.209 207.342 142.068 207.539 141.646 207.553C138.441 207.646 135.24 207.755 132.039 207.882C131.565 207.901 131.357 207.767 131.21 207.3C129.655 202.404 126.876 198.324 122.917 195.039C122.767 194.916 122.581 194.826 122.533 194.573C125.605 193.245 128.694 192.936 131.709 194.643C133.546 195.683 134.764 197.306 135.494 199.286C135.874 200.318 136.1 201.389 136.342 202.455C136.379 202.621 136.359 202.854 136.598 202.851C136.83 202.848 136.827 202.612 136.858 202.449C137.12 201.06 137.444 199.688 138.067 198.408C139.901 194.64 143.649 192.93 147.586 193.639C148.533 193.811 149.457 194.044 150.401 194.401Z" fill="#00CE4C"/>
<path d="M131.259 228.89C133.178 228.806 135.097 228.752 137.019 228.733C139.118 228.71 141.218 228.716 143.373 228.727C143.092 231.376 142.551 233.955 141.364 236.356C141.006 237.079 140.584 237.762 140.026 238.353C138.408 240.065 136.52 240.014 135.04 238.167C133.488 236.23 132.482 234.011 131.833 231.629C131.591 230.743 131.447 229.832 131.259 228.89Z" fill="#00CE4C"/>
<path d="M152.732 226.331C149.94 223.286 148.243 219.774 147.854 215.691C147.24 209.26 149.494 203.942 154.223 199.601C156.379 197.621 158.774 196.08 161.643 195.335C166.879 193.977 171.836 194.646 176.427 197.486C181.358 200.537 184.269 204.994 185.058 210.73C185.963 217.299 183.895 222.895 179.062 227.4C176.077 230.181 172.462 231.733 168.373 232.144C163.41 232.644 158.96 231.337 154.978 228.378C154.175 227.78 153.457 227.082 152.732 226.331Z" fill="#0E0E0E"/>
<path d="M100.034 231.579C95.7421 229.689 92.5352 226.7 90.5456 222.518C88.108 217.398 88.0826 212.193 90.3512 206.991C91.6503 204.013 93.7526 201.693 96.2043 199.584C98.8054 197.343 101.787 196.1 105.118 195.658C109.539 195.073 113.693 195.953 117.472 198.338C122.356 201.42 125.261 205.843 126.048 211.557C126.949 218.126 124.881 223.722 120.048 228.224C117.064 231.005 113.445 232.54 109.359 232.97C106.135 233.311 103.055 232.819 100.034 231.579Z" fill="#0E0E0E"/>
<path fill-rule="evenodd" clip-rule="evenodd" d="M52.652 83.5366C63.8913 83.5366 73.3134 91.3136 75.826 101.778C76.0166 101.773 76.2078 101.771 76.3995 101.771C89.5612 101.771 100.231 112.436 100.231 125.591C100.231 134.199 95.6627 141.741 88.8172 145.926C89.9384 148.689 90.556 151.71 90.556 154.875C90.556 168.031 79.8863 178.695 66.7246 178.695C61.4606 178.695 56.5952 176.989 52.6516 174.1C48.7079 176.989 43.8425 178.695 38.5785 178.695C25.4168 178.695 14.7472 168.031 14.7472 154.875C14.7472 151.71 15.3647 148.689 16.4859 145.926C9.64046 141.741 5.07227 134.199 5.07227 125.591C5.07227 112.436 15.7419 101.771 28.9036 101.771C29.0956 101.771 29.2871 101.773 29.478 101.778C31.9905 91.3136 41.4126 83.5366 52.652 83.5366Z" fill="#88A1FF"/>
<path d="M139 6L154.597 26.4772L180.332 25.9046L174.047 50.8666L190.54 70.6298L167.106 81.2798L161.937 106.497L139 94.8149L116.062 106.497L110.894 81.2798L87.4593 70.6298L103.952 50.8666L97.6675 25.9046L123.402 26.4772L139 6Z" fill="#A0FF56"/>
<path fill-rule="evenodd" clip-rule="evenodd" d="M237.691 83.5366H213.005V101.26L200.576 88.8315L183.12 106.287L195.605 118.773H177.768L177.768 143.459L195.816 143.459L183.1 156.176L200.556 173.631L213.005 161.182V178.695H237.691V160.858L250.407 173.575L267.863 156.119L255.204 143.459L272.927 143.459V118.773H255.414L267.843 106.344L250.387 88.8881L237.691 101.584V83.5366Z" fill="#FB7A35"/>
</g>
</svg>
